X:79
T:Rose in the Mountain
C:From John Salyer via Rafe Stefanini
Z:abc-transcription Josh Larios <hades@elsewhere.org>, 2015.04.21
N:Works well with fiddle tuned ADae
N:* Crooked tune; extra beats at midpoint and end of high part, but only at end of low part.
S:https://youtu.be/peq7i2Qz31s
M:4/4
L:1/8
G:Key: D
K:D
|: "^*"A,C | "D"D2 DF A2 d2 | ABAF DA,B,C | D2 DF Acde | fd- d2 "A"e4 | 
"D"DCDF Acde | fgfe d2 A2 | "G"BcdA BAEF | "A"A2 [DA,]2 "D"[+slide+DD]4 | "^*"D2:| 
|:"^*""D"ea | f2 d2 "A"ecea | "D"fdfd "A"e2 eg | "D"f2 d2 "A"ecea | "D"fd f2 "A"e4- | "^*"efge |
"D"f2 dB ABde | fgfe d2 A2 | "G"BcdA BAEF | "A"A2 [DA,]2 "D"[+slide+DD]4 | "^*"D2:| 

